assets/img/icons/duotone-icons/Tools/Pantone.svg

<?xml version="1.0" encoding="UTF-8"?>
<svg width="24px" height="24px" viewBox="0 0 24 24" version="1.1" xmlns="http://www.w3.org/2000/svg" xmlns:xlink="http://www.w3.org/1999/xlink">
    <!-- Generator: Sketch 52.2 (67145) - http://www.bohemiancoding.com/sketch -->
    <title>Stockholm-icons / Tools / Pantone</title>
    <desc>Created with Sketch.</desc>
    <g id="Stockholm-icons-/-Tools-/-Pantone" stroke="none" stroke-width="1" fill="none" fill-rule="evenodd">
        <polygon id="bound" points="0 0 24 0 24 24 0 24"></polygon>
        <path d="M22,15 L22,19 C22,20.1045695 21.1045695,21 20,21 L8,21 C5.790861,21 4,19.209139 4,17 C4,14.790861 5.790861,13 8,13 L20,13 C21.1045695,13 22,13.8954305 22,15 Z M7,19 C8.1045695,19 9,18.1045695 9,17 C9,15.8954305 8.1045695,15 7,15 C5.8954305,15 5,15.8954305 5,17 C5,18.1045695 5.8954305,19 7,19 Z" id="Combined-Shape" fill="#335EEA" opacity="0.3"></path>
        <path d="M15.5421357,5.69999981 L18.3705628,8.52842693 C19.1516114,9.30947552 19.1516114,10.5758055 18.3705628,11.3568541 L9.88528147,19.8421354 C8.3231843,21.4042326 5.79052439,21.4042326 4.22842722,19.8421354 C2.66633005,18.2800383 2.66633005,15.7473784 4.22842722,14.1852812 L12.7137086,5.69999981 C13.4947572,4.91895123 14.7610871,4.91895123 15.5421357,5.69999981 Z M7,19 C8.1045695,19 9,18.1045695 9,17 C9,15.8954305 8.1045695,15 7,15 C5.8954305,15 5,15.8954305 5,17 C5,18.1045695 5.8954305,19 7,19 Z" id="Combined-Shape" fill="#335EEA" opacity="0.3"></path>
        <path d="M5,3 L9,3 C10.1045695,3 11,3.8954305 11,5 L11,17 C11,19.209139 9.209139,21 7,21 C4.790861,21 3,19.209139 3,17 L3,5 C3,3.8954305 3.8954305,3 5,3 Z M7,19 C8.1045695,19 9,18.1045695 9,17 C9,15.8954305 8.1045695,15 7,15 C5.8954305,15 5,15.8954305 5,17 C5,18.1045695 5.8954305,19 7,19 Z" id="Combined-Shape" fill="#335EEA"></path>
    </g>
</svg>

<svg width="24" height="24" viewBox="0 0 24 24" xmlns="http://www.w3.org/2000/svg"><g fill="none" fill-rule="evenodd"><path d="M0 0h24v24H0z"/><path d="M22 15v4a2 2 0 01-2 2H8a4 4 0 110-8h12a2 2 0 012 2zM7 19a2 2 0 100-4 2 2 0 000 4z" fill="#335EEA" opacity=".3"/><path d="M15.542 5.7l2.829 2.828a2 2 0 010 2.829l-8.486 8.485a4 4 0 11-5.657-5.657L12.714 5.7a2 2 0 012.828 0zM7 19a2 2 0 100-4 2 2 0 000 4z" fill="#335EEA" opacity=".3"/><path d="M5 3h4a2 2 0 012 2v12a4 4 0 11-8 0V5a2 2 0 012-2zm2 16a2 2 0 100-4 2 2 0 000 4z" fill="#335EEA"/></g></svg>
